X:1
T:Distant Lover
T:For Children, Book 2, Sz42
T:19. Distant Lover
T:For Children Nr 19 , Sz 42 
T:Béla Bartók Revised and Arranged by the Composer, January 1945 
T:Book 2 (after Slovakian Folksongs)
T:Oli 2020
C:Bartok
Z:Oli 2020
%%score { 1 | ( 2 3 ) }
L:1/8
Q:1/4=65
M:6/8
K:C
V:1 treble nm="Piano" snm="Pno."
V:2 bass 
V:3 bass 
V:1
"^Assai Lento" z6 | z6 | z6 |"^semplice"!p! !tenuto!!4!B!tenuto!!4!B!tenuto!!4!B!<(! (^G E2) | %4
 !tenuto!!5!e!tenuto!!5!e!tenuto!e (d e2)!<)! |!>(! !tenuto!!4!d!tenuto!d!tenuto!c (d c2) | %6
 !tenuto!!2!B!tenuto!B!>)!!tenuto!A (!3!^G !1!E2) |!pp! !tenuto!!4!!5![Ec]3 !tenuto!!5![EB]3 | %8
 [CA]6 | z6 | z6 | z6 |!p! !tenuto!B!tenuto!B!tenuto!B!<(! (^G E2) | %13
 !tenuto!e!<)!!tenuto!e!tenuto!e (d e2) |!>(! !tenuto!d!tenuto!d!tenuto!c (d c2) | %15
 !tenuto!B!tenuto!B!>)!!tenuto!A (^G E2) |!pp!!>(! !tenuto!!3!!5![Ac]3 !tenuto!!2!!4![GB]3 | %17
 [FA]6!>)! |!p! !3!CDC _B, C2 |"_molto cresc." (D!1!CD E !5!^G2 |!f!!>(! !3!^G6) | %21
 !tenuto!B!>)!!p!!<(!!tenuto!B!tenuto!B (^G E2)!<)! |!mf! !tenuto!e!tenuto!e!tenuto!e (d e2) | %23
"_dim." !tenuto!d!tenuto!d!tenuto!c (d c2) | !tenuto!B!tenuto!B!tenuto!A (^G!p! E2) | %25
!pp! [Ec]3 [EB]3 | [CA]6 |] %27
V:2
!p!"^poco espr. sonore\n\n""^molto legato" (!3!E,^F,E, D, E,2 | ^F,E,D, !1!E, !4!B,,2 | !>!^D,6- | %3
 D,3) (!1!=D,2 C, | B,,2 A,, B,,2 ^G,,) | (!4!A,,2 !1!E, !5!G,,2 E, | !4!F,,2 !1!D,) (E,,2 !1!E,) | %7
 !5!!1![C,G,]3 !3![E,G,]3 | !5!!1![A,,E,]6 |[K:treble] (!3!E!mf!!<(!^FE!<)! D E2 | ^FEF ^G ^C2 | %11
!>(! (!2!^D6-)!>)! | D3- D2 B,) | (!3!^C3- C2 !5!^G,) | (!4!A,2 F) (!5!G,2 E) | %15
[K:bass] (!4!F,2 D) (!5!E,2 C) | !tenuto!!5!!2![F,,C,]3 !tenuto![F,,D,]3 | [F,,C,]6 | %18
 (!3!C,D,C, _B,, C,2 | D,!5!C,D, E, !1!^G,2 | (!1!^G,6-) | G,3- !2!G,2 !4!C,) |!ped! B,,6!ped-up! | %23
!ped! G,,6!ped-up! | (!4!F,,2 D,) (!5!E,,2 E,) | !tenuto![C,G,]3 !tenuto![E,G,]3 | [A,,E,]6 |] %27
V:3
 x6 | x6 | x6 | x6 | x6 | x6 | x6 | x6 | x6 |[K:treble] x6 | x6 | x6 | x6 | x6 | x6 |[K:bass] x6 | %16
 x6 | x6 | x6 | x6 | x6 | x6 | (!5!B,,2 E, G,2 B,) | (G,,2 C, E,2 G,) | x6 | x6 | x6 |] %27

